images/logos/erdil.svg

<svg height="40" viewBox="0 0 130 40" width="130" xmlns="http://www.w3.org/2000/svg"><path d="m74.0828042 29.077042v2.186083l10.1887385-1.3219869 3.8329146 4.2736902-14.0216531 1.0997662v2.4713355l16.6336812-.5417618 2.8748375 3.2517297-2.8504864 2.9971505-16.6580323-.8699913v2.3289771l14.0216531 1.2899628-3.8329146 4.0683061-10.1887385-1.4162251v2.0973743l8.0981864 1.5385987-2.5869698 2.8245631-5.5112166-1.2005146v.0424072l-6.222449 5.8034933-20.8603552-19.5041021 20.8603552-20.4958979 6.222449 5.817361v.057551l5.5112166-1.2004747 2.5869698 2.8906626zm28.4468668 21.3600952v-19.3667408h13.796633v2.4338373h-11.348192v6.0316528h8.870853v2.4345459h-8.870853v6.0611091h11.348192v2.4055957zm31.001301 0-4.474933-6.7787895c-.752155-1.1247033-1.983448-1.687308-3.691255-1.687308h-2.954357v8.4660975h-2.450361v-19.3667408h8.36241c1.632631 0 3.059542.49772 4.278609 1.4950831 1.258879 1.0881613 1.887964 2.406203 1.887964 3.9555423 0 1.2720858-.421344 2.3784675-1.265951 3.319145-.807929.9412849-1.868058 1.5782894-3.182611 1.9103052.468127.0372505 1.117723.6717245 1.942425 1.9078757l4.47938 6.7787895zm-2.70236-16.1579302c-.69456-.5153329-1.532094-.7742647-2.506136-.7742647h-5.912049v6.0309442h5.912049c.996473 0 1.831481-.2671309 2.506136-.8008867.788125-.5720185 1.183097-1.3117658 1.183097-2.213978 0-.9047429-.394972-1.6507661-1.183097-2.2418148zm21.767003 13.3361001c-1.915548 1.8807477-4.231827 2.8220325-6.955406 2.8220325h-7.378668v-19.3668419h7.378668c2.723579 0 5.039858.9507999 6.955406 2.8510838 1.934745 1.8977534 2.898582 4.1773248 2.898582 6.8323371 0 2.6740426-.963837 4.9611046-2.898582 6.8613885zm-1.715688-11.9793907c-1.446714-1.4207844-3.193624-2.1314802-5.239313-2.1314802h-4.9276v14.5267004h4.9276c2.009112 0 3.754708-.7106959 5.239313-2.1314803 1.444795-1.4573263 2.166232-3.1723698 2.166232-5.1457377 0-1.9928029-.721437-3.6984325-2.166232-5.1180022zm8.023719.5610863h2.448441v14.2400332h-2.448441zm0-5.1262014h2.448441v2.9247752h-2.448441zm6.111 19.3663359v-19.3667408h2.448442v16.9611451h8.870245v2.4055957z" transform="translate(-47 -20)"/></svg>

<?xml version="1.0" encoding="UTF-8"?>
<svg width="130px" height="40px" viewBox="0 0 130 40" version="1.1" xmlns="http://www.w3.org/2000/svg" xmlns:xlink="http://www.w3.org/1999/xlink">
    <!-- Generator: Sketch 50.2 (55047) - http://www.bohemiancoding.com/sketch -->
    <title>Combined Shape</title>
    <desc>Created with Sketch.</desc>
    <defs></defs>
    <g id="Desktop" stroke="none" stroke-width="1" fill="none" fill-rule="evenodd">
        <g id="Work" transform="translate(-1023.000000, -2676.000000)" fill="#000000" fill-rule="nonzero">
            <g id="Clients" transform="translate(80.000000, 1824.000000)">
                <g id="logos" transform="translate(128.000000, 448.000000)">
                    <g id="16" transform="translate(768.000000, 384.000000)">
                        <path d="M74.0828042,29.077042 L74.0828042,31.263125 L84.2715427,29.9411381 L88.1044573,34.2148283 L74.0828042,35.3145945 L74.0828042,37.78593 L90.7164854,37.2441682 L93.5913229,40.4958979 L90.7408365,43.4930484 L74.0828042,42.6230571 L74.0828042,44.9520342 L88.1044573,46.241997 L84.2715427,50.3103031 L74.0828042,48.894078 L74.0828042,50.9914523 L82.1809906,52.530051 L79.5940208,55.3546141 L74.0828042,54.1540995 L74.0828042,54.1965067 L67.8603552,60 L47,40.4958979 L67.8603552,20 L74.0828042,25.817361 L74.0828042,25.874912 L79.5940208,24.6744373 L82.1809906,27.5650999 L74.0828042,29.077042 Z M102.529671,50.4371372 L102.529671,31.0703964 L116.326304,31.0703964 L116.326304,33.5042337 L104.978112,33.5042337 L104.978112,39.5358865 L113.848965,39.5358865 L113.848965,41.9704324 L104.978112,41.9704324 L104.978112,48.0315415 L116.326304,48.0315415 L116.326304,50.4371372 L102.529671,50.4371372 Z M133.530972,50.4371372 L129.056039,43.6583477 C128.303884,42.5336444 127.072591,41.9710397 125.364784,41.9710397 L122.410427,41.9710397 L122.410427,50.4371372 L119.960066,50.4371372 L119.960066,31.0703964 L128.322476,31.0703964 C129.955107,31.0703964 131.382018,31.5681164 132.601085,32.5654795 C133.859964,33.6536408 134.489049,34.9716825 134.489049,36.5210218 C134.489049,37.7931076 134.067705,38.8994893 133.223098,39.8401668 C132.415169,40.7814517 131.35504,41.4184562 130.040487,41.750472 C130.508614,41.7877225 131.15821,42.4221965 131.982912,43.6583477 L136.462292,50.4371372 L133.530972,50.4371372 Z M130.828612,34.279207 C130.134052,33.7638741 129.296518,33.5049423 128.322476,33.5049423 L122.410427,33.5049423 L122.410427,39.5358865 L128.322476,39.5358865 C129.318949,39.5358865 130.153957,39.2687556 130.828612,38.7349998 C131.616737,38.1629813 132.011709,37.423234 132.011709,36.5210218 C132.011709,35.6162789 131.616737,34.8702557 130.828612,34.279207 Z M152.595615,47.6153071 C150.680067,49.4960548 148.363788,50.4373396 145.640209,50.4373396 L138.261541,50.4373396 L138.261541,31.0704977 L145.640209,31.0704977 C148.363788,31.0704977 150.680067,32.0212976 152.595615,33.9215815 C154.53036,35.8193349 155.494197,38.0989063 155.494197,40.7539186 C155.494197,43.4279612 154.53036,45.7150232 152.595615,47.6153071 Z M150.879927,35.6359164 C149.433213,34.215132 147.686303,33.5044362 145.640614,33.5044362 L140.713014,33.5044362 L140.713014,48.0311366 L145.640614,48.0311366 C147.649726,48.0311366 149.395322,47.3204407 150.879927,45.8996563 C152.324722,44.44233 153.046159,42.7272865 153.046159,40.7539186 C153.046159,38.7611157 152.324722,37.0554861 150.879927,35.6359164 Z M158.903646,36.1970027 L161.352087,36.1970027 L161.352087,50.4370359 L158.903646,50.4370359 L158.903646,36.1970027 Z M158.903646,31.0708013 L161.352087,31.0708013 L161.352087,33.9955765 L158.903646,33.9955765 L158.903646,31.0708013 Z M165.014646,50.4371372 L165.014646,31.0703964 L167.463088,31.0703964 L167.463088,48.0315415 L176.333333,48.0315415 L176.333333,50.4371372 L165.014646,50.4371372 Z" id="Combined-Shape"></path>
                    </g>
                </g>
            </g>
        </g>
    </g>
</svg>
